symbolic/64x64/apps/hook.svg

<svg xmlns="http://www.w3.org/2000/svg" width="64" height="64" version="1.1">
 <circle style="opacity:0.2" cx="31.5" cy="32.5" r="28.5"/>
 <circle style="fill:#595552" cx="31.5" cy="31.5" r="28.5"/>
 <path style="opacity:0.2" d="m 8,24 v 7 H 3.0742188 A 28.5,28.5 0 0 0 3,32.5 28.5,28.5 0 0 0 3.0546875,34 H 8 v 7 h 3 V 24 Z m 13.5,0 C 16.80558,24 13,27.80558 13,32.5 13,37.19442 16.80558,41 21.5,41 26.19442,41 30,37.19442 30,32.5 30,27.80558 26.19442,24 21.5,24 Z m 19,0 C 35.80558,24 32,27.80558 32,32.5 32,37.19442 35.80558,41 40.5,41 45.19442,41 49,37.19442 49,32.5 49,27.80558 45.19442,24 40.5,24 Z M 51,24 v 17 h 3 v -5.892578 l 5.091797,4.386719 a 28.5,28.5 0 0 0 0.644531,-3.34375 l -4.433594,-3.619141 4.359375,-4.25 A 28.5,28.5 0 0 0 58.988281,25.001953 L 54,29.972656 V 24 Z m -10.333984,2.666016 c 3.129614,0 5.667968,2.538354 5.667968,5.667968 C 46.333984,35.463598 43.79563,38 40.666016,38 37.536402,38 35,35.463598 35,32.333984 35,29.20437 37.536402,26.666016 40.666016,26.666016 Z M 21.5,27 C 24.537566,27 27,29.462434 27,32.5 27,35.537565 24.537566,38 21.5,38 18.462435,38 16,35.537565 16,32.5 16,29.462434 18.462435,27 21.5,27 Z"/>
 <path style="fill:#ffffff" d="M 8 23 L 8 30 L 3.0742188 30 A 28.5 28.5 0 0 0 3 31.5 A 28.5 28.5 0 0 0 3.0546875 33 L 8 33 L 8 40 L 11 40 L 11 23 L 8 23 z M 21.5 23 C 16.80558 23 13 26.80558 13 31.5 C 13 36.19442 16.80558 40 21.5 40 C 26.19442 40 30 36.19442 30 31.5 C 30 26.80558 26.19442 23 21.5 23 z M 40.5 23 C 35.80558 23 32 26.80558 32 31.5 C 32 36.19442 35.80558 40 40.5 40 C 45.19442 40 49 36.19442 49 31.5 C 49 26.80558 45.19442 23 40.5 23 z M 51 23 L 51 40 L 54 40 L 54 34.107422 L 59.091797 38.494141 A 28.5 28.5 0 0 0 59.736328 35.150391 L 55.302734 31.53125 L 59.662109 27.28125 A 28.5 28.5 0 0 0 58.988281 24.001953 L 54 28.972656 L 54 23 L 51 23 z M 40.666016 25.666016 C 43.79563 25.666016 46.333984 28.20437 46.333984 31.333984 C 46.333984 34.463598 43.79563 37 40.666016 37 C 37.536402 37 35 34.463598 35 31.333984 C 35 28.20437 37.536402 25.666016 40.666016 25.666016 z M 21.5 26 C 24.537566 26 27 28.462434 27 31.5 C 27 34.537565 24.537566 37 21.5 37 C 18.462435 37 16 34.537565 16 31.5 C 16 28.462434 18.462435 26 21.5 26 z"/>
 <path style="fill:#ffffff;opacity:0.1" d="M 31.5 3 A 28.5 28.5 0 0 0 3 31.5 A 28.5 28.5 0 0 0 3.0214844 32.082031 A 28.5 28.5 0 0 1 31.5 4 A 28.5 28.5 0 0 1 59.978516 31.917969 A 28.5 28.5 0 0 0 60 31.5 A 28.5 28.5 0 0 0 31.5 3 z"/>
</svg>

<svg xmlns="http://www.w3.org/2000/svg" width="64" height="64"><circle style="opacity:.2" cx="31.5" cy="32.5" r="28.5"/><circle style="fill:#595552" cx="31.5" cy="31.5" r="28.5"/><path style="opacity:.2" d="M8 24v7H3.074A28.5 28.5 0 0 0 3 32.5a28.5 28.5 0 0 0 .055 1.5H8v7h3V24zm13.5 0a8.5 8.5 0 1 0 0 17 8.5 8.5 0 0 0 0-17zm19 0a8.5 8.5 0 1 0 0 17 8.5 8.5 0 0 0 0-17zM51 24v17h3v-5.893l5.092 4.387a28.5 28.5 0 0 0 .644-3.344l-4.433-3.619 4.36-4.25a28.5 28.5 0 0 0-.675-3.279L54 29.972V24zm-10.334 2.666A5.667 5.667 0 1 1 40.667 38a5.667 5.667 0 0 1-.001-11.334zM21.5 27a5.5 5.5 0 1 1 0 11 5.5 5.5 0 0 1 0-11z"/><path style="fill:#fff" d="M8 23v7H3.074A28.5 28.5 0 0 0 3 31.5a28.5 28.5 0 0 0 .055 1.5H8v7h3V23H8zm13.5 0a8.5 8.5 0 1 0 0 17 8.5 8.5 0 0 0 0-17zm19 0a8.5 8.5 0 1 0 0 17 8.5 8.5 0 0 0 0-17zM51 23v17h3v-5.893l5.092 4.387a28.5 28.5 0 0 0 .644-3.344l-4.433-3.619 4.36-4.25a28.5 28.5 0 0 0-.675-3.279L54 28.972V23h-3zm-10.334 2.666A5.667 5.667 0 1 1 40.667 37a5.667 5.667 0 0 1-.001-11.334zM21.5 26a5.5 5.5 0 1 1 0 11 5.5 5.5 0 0 1 0-11z"/><path style="fill:#fff;opacity:.1" d="M31.5 3A28.5 28.5 0 0 0 3 31.5a28.5 28.5 0 0 0 .021.582A28.5 28.5 0 0 1 31.5 4a28.5 28.5 0 0 1 28.479 27.918A28.5 28.5 0 0 0 60 31.5 28.5 28.5 0 0 0 31.5 3z"/></svg>
